!!!OTL-incipit: WAS KANN SCHOENER SEYN, WAS KANN MEHR ERFREUN
!!!ARE: Europa, Mitteleuropa, Deutschland, Emmenthal
!!!SCT: Z0315
!!!TXL: @@DE
!!!YEM: Copyright 1995, estate of Helmut Schaffrath.
**kern	**text
*ICvox	*
*M3/4	*
*k[f#]	*
*G:	*
=1	=1
!LO:TX:a:t=Emmenthaler Nuhreigen.	!
{8.g	Was
16a	kann
16bL	ſchö-
16ccJ	.
16bL	-ner
16aJ	.
4g	ſeyn,
=2	=2
8.b	was
16cc	kann
16ddL	mehr
16eeJ	.
16ddL	er-
16ccJ	.
4b}	-freun,
=3	=3
{8dd	als
8dd	ein
8cc	A-
8cc	-bend
8b	in
8b	den
=4	=4
(8.a	Len-
16cc)	.
2b}	-ʒen?
=5	=5
{8.g	Wenn
16a	der
16bL	Bäumlein
16ccJ	.
16bL	.
16aJ	.
4g	Duft
=6	=6
8.b	rings
16cc	er-
16ddL	-füllt
16eeJ	.
16ddL	die
16ccJ	.
4b}	Luft,
=7	=7
{8dd	und
8dd	die
8cc	A-
8cc	-bend-
8b	-wol-
8b	-ken
=8	=8
(8.a	glän-
16cc)	.
2b}	-ʒen?
=9	=9
{8.dd	Wenn
16cc	die
4b	Vög-
8.b	.
16dd	-lein
=10	=10
8cc	brü-
8b	-tend
4a	gir-
4a}	-ren,
=11	=11
{8.dd	und
16cc	am
[4b	See
8.b]	.
16dd	die
=12	=12
8cc	Mük-
8b	-ken
4a	ſchwir-
4a}	-ren,
=13	=13
{8.g	wenn
16a	die
16bL	Bie-
16ccJ	.
16bL	-ne-
16aJ	.
4g	-lein
=14	=14
8.b	mit
16cc	dem
16ddL	Ho-
16eeJ	.
16ddL	-nig-
16ccJ	.
4b}	-ſeim
=15	=15
{8dd	ſüß
8dd	be-
8cc	-ſchwert
8cc	nach
8b	Hau-
8b	-ſe
=16	=16
(<8.a	ir-
16cc)	.
2b}	-ren.
=17	=17
{8.dd	Wenn
16cc	die
4b	Vög-
8.b	.
16dd	-lein
=18	=18
8cc	brü-
8b	-tend
4a	gir-
4a}	-ren,
=19	=19
{8.dd	und
16cc	am
[4b	See
8.b]	.
16dd	die
=20	=20
8cc	Mük-
8b	-ken
4a	ſchwir-
4a}	-ren,
=21	=21
{8.g	wenn
16a	die
16bL	Bie-
16ccJ	.
16bL	-ne-
16aJ	.
4g	-lein
=22	=22
8.b	mit
16cc	dem
16ddL	Ho-
16eeJ	.
16ddL	-nig-
16ccJ	.
4b}	-ſeim
=23	=23
{8dd	ſüß
8dd	be-
8cc	-ſchwert
8cc	nach
8b	Hau-
8b	-ſe
=24	=24
(<8.a	ir-
16cc)	.
2b}	-ren.
==	==
!!!AGN: Lyrisches Lied, Romanze
!!!ONB: ESAC (Essen Associative Code) Database: ZUCCAL
!!!AMT: simple triple
!!!AIN: vox
!!!EED: Helmut Schaffrath
!!!EEV: 1.0
!!!RDF**kern: <= below
!!!GTL: IV. Lyrische Lieder.
!!!URL-scan: https://www.digitale-sammlungen.de/de/view/bsb11160571?page=567
!!!ENC: Anna Maria Matuszewska
!!!EEV: 2025/01/31
*-	*-
